X:2
T:No.46 Mick Carr's Barndance
C:barndance
M:4/4
L:1/8
K:G
d>e d>c B<G B>c|d>e d>B g2 B2|c>d c>B A>A A>B|
c>B c>A d2 B>c|d>e d>c B<G B>c|d>e d>B g2 f>g|
e>g f>e d>c B>A|[1G2 F2 G>A B>c:|[2G2 F2 G2 F>E||
D2 G>B d2 d2|e>d c>B c2 c2|D2 F>A c2 ^c>d|
f>e d>c B2 B2|D2 G>B d2 d2|e>d c>B c4|
D>E F>G A>c B>A|[1G2 F2 G2 F>E:|[2G2 F2 G>B c>^c||
